!!!SOCIAL_FUNCTION: miscellaneous dance songs
!!!PDT:	1943
!!!LING_GROUP: Muskogean
!!!LANG: Non-Tone
Specific Region: Oklahoma, California, Mississippi, Louisiana, Texas, Alabama
!!!REG: Southeast
!!!COM: Anon.
!!!OTL: Quail Dance Song
!!!ODT: <1933//
!!!MPN: Lapintabeseihoke [Kills it Himself, Sidney Wesley]
!!!MLC: Philadelphia, Mississippi, United States of America
!! Song was recorded in January 1933.
!!!AGN: monody
!!!AMT: irregular
!!!RWG: Transcribed pitches, durations, and meters are only approximate.
**kern
*ICvox
*Imale
*clefF4
*k[f#c#g#]
*M2/4
*MM76
*[A,A,B]
*>A
=!|:1
4A
8c#
8A
=2
8.A
16F#
8F#
8r
=3
4A
8c#
8A
=4
8.A
16E
8E
8r
*M3/4
=5
8B
8B
8E
8A
16E
8E
16F#
*M2/4
*>B
=:|!6
4E
8E
8E
=7
8E
8E
8E
8r
=8
8A
16A
16r
8A
16B
16r
=9
8A
8A
8B
8A
=10
8c#
8c#
16.B
32B
8A
=11
8B
8B
16.c#
32B
8A
=12
16F#
16r
8A
8A
16A
16r
*M3/8
=13
8A
8B
8A
*M2/4
=14
8c#
8c#
16.B
32B
8A
=15
8B
8B
16.c#
32B
8A
*M3/4
=16
16F#
16r
8A
8A
16A
16r
8A
8A
==
*-
!!!CNT: Choctaw
!!!TXO: Choctaw
!!!OCY: United States
!!!OCL: Frances Densmore
!!!YOR: Frances Densmore, "Choctaw Music"
!!!YOR: Bulletin 136, page 173, No. 59
!!!PPR: Smithsonian Institution, Bureau of American Ethnology
!!!PPR: Government Printing Office
!!!PDT: 1943
!!!PPP: Washington, DC, United States of America
!!!YEC: Electronic Copyright 2000 David Huron
!!!YER: August 2000
!!!YEN: United States of America
!!!ENC: David Huron
!!!RDT: August 30, 2000
!!!EEV: Release 1.0
!!!AIN: vox
